assets/images/component/AppFooter/icons/socials/icon-ig.svg

<svg width="22" height="22" viewBox="0 0 22 22" fill="none" xmlns="http://www.w3.org/2000/svg">
<path fill-rule="evenodd" clip-rule="evenodd" d="M21.9955 12.6468C21.9933 11.9327 21.9911 11.2185 21.9911 10.5039C21.9911 9.79064 21.9933 9.07709 21.9955 8.36342C22.0006 6.73181 22.0057 5.09958 21.9842 3.46893C21.9533 1.21355 20.7306 0.036688 18.3711 0.0235753C13.4564 -0.00265009 8.5416 -0.00265009 3.62683 0.0235753C1.26733 0.036688 0.034345 1.21683 0.020607 3.47221C-0.006869 8.16328 -0.006869 12.8543 0.020607 17.5454C0.034345 19.7975 1.27076 20.9744 3.63026 20.9842C8.54503 21.0104 13.4598 21.0104 18.3746 20.9842C20.7341 20.9744 21.9567 19.791 21.9842 17.5388C22.0057 15.9085 22.0006 14.2782 21.9955 12.6468ZM5.24448 10.3662C5.32004 7.35685 8.00581 4.89166 11.1484 4.94411C14.2978 4.99656 16.884 7.55681 16.8256 10.5662C16.7707 13.5657 14.054 16.0768 10.9423 16.0014C7.79288 15.926 5.16892 13.3297 5.24448 10.3662ZM17.4404 2.54449C18.5085 2.52482 19.3019 3.23618 19.3397 4.24586C19.3774 5.22276 18.6012 6.06525 17.6052 6.13409C16.5715 6.20621 15.5789 5.31455 15.5789 4.32126C15.5789 3.36731 16.4203 2.56416 17.4404 2.54449ZM11.1175 14.7547C13.5766 14.7186 15.5171 12.8074 15.5033 10.4373C15.493 8.05735 13.5457 6.20845 11.0488 6.20845C8.56907 6.20518 6.57706 8.07046 6.54959 10.4176C6.52211 12.8074 8.61372 14.794 11.1175 14.7547Z" fill="white"/>
</svg>

<svg width="22" height="22" fill="none" xmlns="http://www.w3.org/2000/svg"><path fill-rule="evenodd" clip-rule="evenodd" d="M21.995 12.647a695.44 695.44 0 0 1-.004-2.143c0-.713.002-1.427.005-2.14.005-1.632.01-3.264-.012-4.895-.03-2.255-1.253-3.432-3.613-3.445-4.915-.027-9.83-.027-14.744 0C1.267.037.034 1.217.02 3.472a1201.39 1201.39 0 0 0 0 14.073c.013 2.252 1.25 3.43 3.61 3.44 4.914.025 9.829.025 14.744 0 2.36-.01 3.582-1.194 3.61-3.446.02-1.63.016-3.26.01-4.892Zm-16.75-2.28c.075-3.01 2.76-5.475 5.903-5.423 3.15.053 5.736 2.613 5.678 5.622-.055 3-2.772 5.51-5.884 5.435-3.15-.075-5.773-2.671-5.698-5.635ZM17.44 2.543c1.069-.02 1.862.692 1.9 1.702.037.977-.739 1.82-1.735 1.888-1.034.072-2.026-.82-2.026-1.813 0-.954.841-1.757 1.861-1.777Zm-6.323 12.21c2.46-.035 4.4-1.947 4.386-4.317-.01-2.38-1.957-4.229-4.454-4.229-2.48-.003-4.472 1.862-4.5 4.21-.027 2.39 2.065 4.376 4.568 4.337Z" fill="#fff"/></svg>
